!!!!SEGMENT: pl-wtm--r-32-n_noskowski-zygmunt--romans.krn
!!!cenid: 18xx:2275
!!!COM: Noskowski, Zygmunt
!!!COM-rismID: pe106604
!!!CDT: 1846/05/02-1909/07/23
!!!CNT: Polish
!!!OTL: Romans
!!!PDT:
!!!AGN: Secular
!!!SMS-siglum: PL-Wtm
!!!SMS-shelfmark: R 32/N
!!!SMS-shelfwork: W
!!!SMS-variant: Violino 1o PL-WTM R 32/N:2; Violino 2do PL-WTM R 32/N:8; Viola PL-WTM R 32/N:12; Cello PL-WTM R 32/N:16
!!!SMS-altvar: Violino 1o PL-WTM R 32/N: 4, 6; Violino 2do PL-WTM R 32/N:10; Viola PL-WTM R 32/N:14; Cello PL-WTM R 32/N:18
!!!NIFC-rismSourceID: 1001138462
!!!NIFC-islandoraID:
!!!URL-pdf-islandora:
!!!URL-scan:
!!!ONB-nifc:
!!!AIN: 1 cbass 1 cello 1 clars 2 cor 1 flt 1 viola 2 violn
!!!OMD:
!!!OMD-mod: Adagio
!!!key: A
**kern	**dynam	**mod-dynam	**kern	**dynam	**mod-dynam	**kern	**dynam	**mod-dynam	**kern	**dynam	**mod-dynam	**kern	**dynam	**mod-dynam	**kern	**dynam	**mod-dynam	**kern	**dynam	**mod-dynam	**kern	**dynam	**mod-dynam	**kern	**dynam	**mod-dynam
*	*	*	*	*	*	*	*	*	*	*	*	*	*	*	*group1	*	*	*group1	*	*	*	*	*	*	*	*
*part9	*part9	*part9	*part8	*part8	*part8	*part7	*part7	*part7	*part6	*part6	*part6	*part5	*part5	*part5	*part4	*	*	*part3	*part3	*part3	*part2	*part2	*part2	*part1	*part1	*part1
*staff9	*	*	*staff8	*	*	*staff7	*	*	*staff6	*	*	*staff5	*	*	*staff4	*	*	*staff3	*	*	*staff2	*	*	*staff1	*	*
*	*	*	*	*	*	*	*	*	*	*	*	*	*	*	*I""Corni I e 2do	*	*	*I""Corni I e 2do	*	*	*	*	*	*	*	*
*	*	*	*	*	*	*	*	*	*	*	*	*	*	*	*mI""	*	*	*mI""	*	*	*	*	*	*	*	*
*Icbass	*	*	*Icello	*	*	*Iviola	*	*	*Ivioln	*	*	*Ivioln	*	*	*Icor	*	*	*Icor	*	*	*Iclars	*	*	*Iflt	*	*
*ICstr	*	*	*ICstr	*	*	*ICstr	*	*	*ICstr	*	*	*ICstr	*	*	*ICbras	*	*	*ICbras	*	*	*ICww	*	*	*ICww	*	*
*I"Basſo	*	*	*I"Cello	*	*	*I"Viola	*	*	*I"Violino 2do	*	*	*I"Violino Io	*	*	*I"[Corno II in F]	*	*	*I"[Corno I in F]	*	*	*I"Clarinetto in A	*	*	*I"Flauto	*	*
*mI"Contrabbasso	*	*	*mI"Violoncello	*	*	*mI"Viola	*	*	*mI"Violino II	*	*	*mI"Violino I	*	*	*mI"Corno II in F	*	*	*mI"Corno I in F	*	*	*mI"Clarinetto in A	*	*	*mI"Flauto	*	*
*I'cb	*	*	*I'vlc	*	*	*I'vla	*	*	*I'vl II	*	*	*I'vl I	*	*	*I'cor II in F	*	*	*I'cor I in F	*	*	*I'cl in A	*	*	*I'fl	*	*
*>[A,B,B]	*>[A,B,B]	*>[A,B,B]	*>[A,B,B]	*>[A,B,B]	*>[A,B,B]	*>[A,B,B]	*>[A,B,B]	*>[A,B,B]	*>[A,B,B]	*>[A,B,B]	*>[A,B,B]	*>[A,B,B]	*>[A,B,B]	*>[A,B,B]	*>[A,B,B]	*	*	*>[A,B,B]	*>[A,B,B]	*>[A,B,B]	*>[A,B,B]	*>[A,B,B]	*>[A,B,B]	*>[A,B,B]	*>[A,B,B]	*>[A,B,B]
*>A	*>A	*>A	*>A	*>A	*>A	*>A	*>A	*>A	*>A	*>A	*>A	*>A	*>A	*>A	*>A	*	*	*>A	*>A	*>A	*>A	*>A	*>A	*>A	*>A	*>A
*clefF4	*	*	*clefF4	*	*	*clefC3	*	*	*clefG2	*	*	*clefG2	*	*	*clefG2	*	*	*clefG2	*	*	*clefG2	*	*	*clefG2	*	*
*ITrd0c0	*	*	*	*	*	*	*	*	*	*	*	*	*	*	*ITrd4c7	*	*	*ITrd4c7	*	*	*ITrd2c3	*	*	*	*	*
*k[]	*	*	*k[]	*	*	*k[]	*	*	*k[]	*	*	*k[]	*	*	*	*	*	*	*	*	*k[]	*	*	*k[]	*	*
*A:	*	*	*A:	*	*	*A:	*	*	*A:	*	*	*A:	*	*	*	*	*	*	*	*	*A:	*	*	*A:	*	*
*M6/8	*	*	*M6/8	*	*	*M6/8	*	*	*M6/8	*	*	*M6/8	*	*	*M6/8	*	*	*M6/8	*	*	*M6/8	*	*	*M6/8	*	*
=1	=1	=1	=1	=1	=1	=1	=1	=1	=1	=1	=1	=1	=1	=1	=1	=1	=1	=1	=1	=1	=1	=1	=1	=1	=1	=1
!LO:TX:a:t=Moderato con moto:mod=	!	!	!	!	!	!	!	!	!LO:TX:a:t=2:mod=	!	!	!	!	!	!	!	!	!	!	!	!	!	!	!LO:TX:a:t=Moderato con moto:mod=	!	!
!LO:TX:a:t=2:mod=	!	!	!LO:TX:a:t=Moderato con moto:mod=	!	!	!LO:TX:a:t=Moderato con moto:mod=	!	!	!LO:TX:a:t=Moderato con moto:mod=	!	!	!LO:TX:a:t=Moderato con moto:mod=	!	!	!	!	!	!LO:TX:b:t=2:mod=	!	!	!LO:TX:a:t=2:mod=	!	!	!LO:TX:a:t=2:mod=	!	!
2.r	.	.	8e\L	mf	mf	8e\L	mf	mf	2.r	.	.	8ee\L	mf	mf	2.r	.	.	2.r	.	.	2.r	.	.	2.r	.	.
.	.	.	(16A\L	.	.	(16A\L	.	.	.	.	.	(16a\L	.	.	.	.	.	.	.	.	.	.	.	.	.	.
.	.	.	16B\J	.	.	16B\J	.	.	.	.	.	16b\J	.	.	.	.	.	.	.	.	.	.	.	.	.	.
.	.	.	8c\J)	.	.	8c\J)	.	.	.	.	.	8cc\J)	.	.	.	.	.	.	.	.	.	.	.	.	.	.
.	.	.	(16A\LL	.	.	(16A/LL	.	.	.	.	.	(16a/LL	.	.	.	.	.	.	.	.	.	.	.	.	.	.
.	.	.	16G\J	.	.	16G/J	.	.	.	.	.	16g/J	.	.	.	.	.	.	.	.	.	.	.	.	.	.
!	!	!	!	!	!	!	!	!	!	!	!	!LO:SIC:s=8f/)	!	!	!	!	!	!	!	!	!	!	!	!	!	!
.	.	.	8F\)	.	.	8F/)	.	.	.	.	.	8f/J)	.	.	.	.	.	.	.	.	.	.	.	.	.	.
!	!	!	!	!	!	!	!	!	!	!	!	!LO:SIC:s=(16a/L	!	!	!	!	!	!	!	!	!	!	!	!	!	!
.	.	.	(16A\L	.	.	(16A/L	.	.	.	.	.	(16a/LL	.	.	.	.	.	.	.	.	.	.	.	.	.	.
.	.	.	16B\JJ	.	.	16B/JJ	.	.	.	.	.	16b/JJ	.	.	.	.	.	.	.	.	.	.	.	.	.	.
=2	=2	=2	=2	=2	=2	=2	=2	=2	=2	=2	=2	=2	=2	=2	=2	=2	=2	=2	=2	=2	=2	=2	=2	=2	=2	=2
!	!	!	!	!	!	!	!	!	!	!	!	!LO:SIC:s=8cc\)L	!	!	!	!	!	!	!	!	!	!	!	!	!	!
2.r	.	.	8c\L)	.	.	8c/L)	.	.	2.r	.	.	8cc\)	.	.	2.r	.	.	2.r	.	.	2.r	.	.	2.r	.	.
!	!	!	!	!	!	!	!	!	!	!	!	!LO:SIC:s=(16a/L	!	!	!	!	!	!	!	!	!	!	!	!	!	!
.	.	.	(16A\L	.	.	(16A/L	.	.	.	.	.	(16a/LL	.	.	.	.	.	.	.	.	.	.	.	.	.	.
.	.	.	16G\	.	.	16G/	.	.	.	.	.	16g/	.	.	.	.	.	.	.	.	.	.	.	.	.	.
.	.	.	16F\	.	.	16F/	.	.	.	.	.	16f/	.	.	.	.	.	.	.	.	.	.	.	.	.	.
!	!	!	!	!	!	!	!	!	!	!	!	!LO:SIC:s=16g/JJ)	!	!	!	!	!	!	!	!	!	!	!	!	!	!
.	.	.	16G\JJ)	.	.	16G/JJ)	.	.	.	.	.	16g/JJ	.	.	.	.	.	.	.	.	.	.	.	.	.	.
.	.	.	4.E\	.	.	4.E/	.	.	.	.	.	4.e/)	.	.	.	.	.	.	.	.	.	.	.	.	.	.
!	!	!	!LO:LB:g=original	!	!	!LO:LB:g=original	!	!	!	!	!	!	!	!	!	!	!	!	!	!	!	!	!	!	!	!
=3!|:	=3!|:	=3!|:	=3!|:	=3!|:	=3!|:	=3!|:	=3!|:	=3!|:	=3!|:	=3!|:	=3!|:	=3!|:	=3!|:	=3!|:	=3!|:	=3!|:	=3!|:	=3!|:	=3!|:	=3!|:	=3!|:	=3!|:	=3!|:	=3!|:	=3!|:	=3!|:
*>B	*>B	*>B	*>B	*>B	*>B	*>B	*>B	*>B	*>B	*>B	*>B	*>B	*>B	*>B	*>B	*	*	*>B	*>B	*>B	*>B	*>B	*>B	*>B	*>B	*>B
!	!	!	!	!	!	!	!	!	!	!	!	!	!	!	!	!	!	!LO:TX:b:t=6:mod=	!	!	!	!	!	!LO:TX:a:t=6:mod=	!	!
2.AA/	p	p	2.AA/	p	p	8r	p	.	8r	p	.	8r	p	.	2.r	.	.	2.r	.	.	8r	p	.	2.r	.	.
.	.	.	.	.	.	4A^/	.	p	[4A/	.	p	[4e [4c/	.	p	.	.	.	.	.	.	(4A/	.	p	.	.	.
.	.	.	.	.	.	(16G/LL	.	.	4.A/]	.	.	4.e] 4.c/]	.	.	.	.	.	.	.	.	16G/LL	.	.	.	.	.
!	!	!	!	!	!	!	!	!	!	!	!	!	!	!	!	!	!	!	!	!	!LO:TX:a:t=1.:mod=	!	!	!	!	!
.	.	.	.	.	.	16F/JJ	.	.	.	.	.	.	.	.	.	.	.	.	.	.	16F/JJ	.	.	.	.	.
.	.	.	.	.	.	4E/)	.	.	.	.	.	.	.	.	.	.	.	.	.	.	4E/)	.	.	.	.	.
!	!	!	!	!	!	!	!	!	!	!	!	!LO:LB:g=original	!	!	!	!	!	!	!	!	!	!	!	!	!	!
=4	=4	=4	=4	=4	=4	=4	=4	=4	=4	=4	=4	=4	=4	=4	=4	=4	=4	=4	=4	=4	=4	=4	=4	=4	=4	=4
*rep	*	*	*rep	*	*	*rep	*	*	*rep	*	*	*	*	*	*	*	*	*	*	*	*rep	*	*	*	*	*
!	!	!	!	!	!	!	!	!	!	!	!	!	!	!	!	!	!	!	!	!	!LO:TX:a:t=2.:mod=	!	!	!	!	!
2.AA/	.	.	2.AA/	.	.	8r	.	.	8r	.	.	8r	.	.	2.r	.	.	2.r	.	.	8r	.	.	2.r	.	.
.	.	.	.	.	.	4A^/	.	.	[4A/	.	.	[4e [4c/	.	.	.	.	.	.	.	.	(4A/	.	.	.	.	.
.	.	.	.	.	.	(16G/LL	.	.	4.A/]	.	.	4.e] 4.c/]	.	.	.	.	.	.	.	.	16G/LL	.	.	.	.	.
.	.	.	.	.	.	16F/JJ	.	.	.	.	.	.	.	.	.	.	.	.	.	.	16F/JJ	.	.	.	.	.
.	.	.	.	.	.	4E/)	.	.	.	.	.	.	.	.	.	.	.	.	.	.	4E/)	.	.	.	.	.
*Xrep	*	*	*Xrep	*	*	*Xrep	*	*	*Xrep	*	*	*	*	*	*	*	*	*	*	*	*Xrep	*	*	*	*	*
=5	=5	=5	=5	=5	=5	=5	=5	=5	=5	=5	=5	=5	=5	=5	=5	=5	=5	=5	=5	=5	=5	=5	=5	=5	=5	=5
*rep	*	*	*rep	*	*	*rep	*	*	*	*	*	*	*	*	*	*	*	*	*	*	*rep	*	*	*	*	*
!	!	!	!	!	!	!	!	!	!	!	!	!	!	!	!	!	!	!	!	!	!LO:TX:a:t=3.:mod=	!	!	!	!	!
2.AA/	.	.	2.AA/	.	.	8r	.	.	8r	.	.	8r	.	.	2.r	.	.	2.r	.	.	8r	.	.	2.r	.	.
.	.	.	.	.	.	4A^/	.	.	(4A/	.	.	[4e (4c/	.	.	.	.	.	.	.	.	(4A/	.	.	.	.	.
.	.	.	.	.	.	(16G/LL	.	.	4.G/)	.	.	4.e] 4.B/)	.	.	.	.	.	.	.	.	16G/LL	.	.	.	.	.
.	.	.	.	.	.	16F/JJ	.	.	.	.	.	.	.	.	.	.	.	.	.	.	16F/JJ	.	.	.	.	.
.	.	.	.	.	.	4E/)	.	.	.	.	.	.	.	.	.	.	.	.	.	.	4E/)	.	.	.	.	.
*Xrep	*	*	*Xrep	*	*	*Xrep	*	*	*	*	*	*	*	*	*	*	*	*	*	*	*Xrep	*	*	*	*	*
=6	=6	=6	=6	=6	=6	=6	=6	=6	=6	=6	=6	=6	=6	=6	=6	=6	=6	=6	=6	=6	=6	=6	=6	=6	=6	=6
*rep	*	*	*rep	*	*	*rep	*	*	*rep	*	*	*rep	*	*	*	*	*	*	*	*	*rep	*	*	*	*	*
!	!	!	!	!	!	!	!	!	!	!	!	!	!	!	!	!	!	!	!	!	!LO:TX:a:t=4.:mod=	!	!	!	!	!
2.AA/	.	.	2.AA/	.	.	8r	.	.	8r	.	.	8r	.	.	2.r	.	.	2.r	.	.	8r	.	.	2.r	.	.
.	.	.	.	.	.	4A^/	.	.	(4A/	.	.	[4e (4c/	.	.	.	.	.	.	.	.	(4A/	.	.	.	.	.
.	.	.	.	.	.	(16G/LL	.	.	4.G/)	.	.	4.e] 4.B/)	.	.	.	.	.	.	.	.	16G/LL	.	.	.	.	.
.	.	.	.	.	.	16F/JJ	.	.	.	.	.	.	.	.	.	.	.	.	.	.	16F/JJ	.	.	.	.	.
.	.	.	.	.	.	4E/)	.	.	.	.	.	.	.	.	.	.	.	.	.	.	4E/)	.	.	.	.	.
*Xrep	*	*	*Xrep	*	*	*Xrep	*	*	*Xrep	*	*	*Xrep	*	*	*	*	*	*	*	*	*Xrep	*	*	*	*	*
!LO:LB:g=original	!	!	!	!	!	!	!	!	!LO:LB:g=original	!	!	!	!	!	!	!	!	!	!	!	!	!	!	!	!	!
=7	=7	=7	=7	=7	=7	=7	=7	=7	=7	=7	=7	=7	=7	=7	=7	=7	=7	=7	=7	=7	=7	=7	=7	=7	=7	=7
*	*	*	*	*	*	*rep	*	*	*	*	*	*	*	*	*	*	*	*	*	*	*rep	*	*	*	*	*
!	!	!	!	!	!	!	!	!	!	!	!	!	!	!	!	!	!	!	!	!	!LO:TX:a:t=5:mod=	!	!	!	!	!
4.AA/	.	.	4.AA/	.	.	8r	.	.	8r	.	.	8r	.	.	2.r	.	.	2.r	.	.	8r	.	.	2.r	.	.
.	.	.	.	.	.	4A^/	.	.	(4A/	.	.	[4e [4c/	.	.	.	.	.	.	.	.	(4A/	.	.	.	.	.
4.C/	.	.	4.C/	.	.	(16G/LL	.	.	4.c/)	.	.	4.e] 4.c/]	.	.	.	.	.	.	.	.	16G/LL	.	.	.	.	.
.	.	.	.	.	.	16F/JJ	.	.	.	.	.	.	.	.	.	.	.	.	.	.	16F/JJ	.	.	.	.	.
.	.	.	.	.	.	4E/)	.	.	.	.	.	.	.	.	.	.	.	.	.	.	4E/)	.	.	.	.	.
*	*	*	*	*	*	*Xrep	*	*	*	*	*	*	*	*	*	*	*	*	*	*	*Xrep	*	*	*	*	*
!	!	!	!LO:LB:g=original	!	!	!LO:LB:g=original	!	!	!	!	!	!	!	!	!	!	!	!	!	!	!LO:LB:g=original	!	!	!	!	!
=8	=8	=8	=8	=8	=8	=8	=8	=8	=8	=8	=8	=8	=8	=8	=8	=8	=8	=8	=8	=8	=8	=8	=8	=8	=8	=8
(4BB/	.	.	(4BB/	.	.	(4A/	.	.	(4d#X/	.	.	(4f#X/	.	.	2.r	.	.	2.r	.	.	(4A/	.	.	2.r	.	.
8E\)	.	.	8E\)	.	.	8G#X/)	.	.	8dn/	.	.	8e/)	.	.	.	.	.	.	.	.	8G#/	.	.	.	.	.
4.AA/	.	.	4.AA/	.	.	(16A/LL	.	.	4.c/)	.	.	4.e/	.	.	.	.	.	.	.	.	16A/LL	.	.	.	.	.
.	.	.	.	.	.	16F/JJ	.	.	.	.	.	.	.	.	.	.	.	.	.	.	16F/JJ	.	.	.	.	.
.	.	.	.	.	.	4E/)	.	.	.	.	.	.	.	.	.	.	.	.	.	.	4E/)	.	.	.	.	.
!	!	!	!	!	!	!	!	!	!	!	!	!LO:LB:g=original	!	!	!	!	!	!	!	!	!	!	!	!	!	!
=9	=9	=9	=9	=9	=9	=9	=9	=9	=9	=9	=9	=9	=9	=9	=9	=9	=9	=9	=9	=9	=9	=9	=9	=9	=9	=9
[2.AA/	.	.	[2.AA/	.	.	8r	.	.	8r	.	.	(8a/L	p	p	8r	.	.	8r	.	.	8r	.	.	(8aa\L	p	p
.	.	.	.	.	.	4A/	.	.	([4e 4c/	.	.	8e/	.	.	[4E/	.	p	[4e\	p	p	(4A/	.	.	8ee\	.	.
.	.	.	.	.	.	.	.	.	.	.	.	8a/J)	.	.	.	.	.	.	.	.	.	.	.	8aa\J	.	.
.	.	.	.	.	.	(16Gn/LL	.	.	4.e] 4.B/)	.	.	4.b\	.	.	4.E/]	.	.	4.e\]	.	.	16GnX/LL	.	.	4.bb\)	.	.
.	.	.	.	.	.	16F/JJ	.	.	.	.	.	.	.	.	.	.	.	.	.	.	16F/JJ	.	.	.	.	.
.	.	.	.	.	.	4E/)	.	.	.	.	.	.	.	.	.	.	.	.	.	.	4E/)	.	.	.	.	.
=10	=10	=10	=10	=10	=10	=10	=10	=10	=10	=10	=10	=10	=10	=10	=10	=10	=10	=10	=10	=10	=10	=10	=10	=10	=10	=10
4.AA/]	.	.	4.AA/]	.	.	8r	.	.	8r	.	.	(8cc\L	.	.	8r	.	.	8r	.	.	8r	.	.	(8ccc\L	.	.
!	!	!	!	!	!	!	!	!	!LO:SIC:s=(4e 4c/	!	!	!	!	!	!	!	!	!	!	!	!	!	!	!	!	!
.	.	.	.	.	.	4A/	.	.	(4e (4c/	.	.	8b\	.	.	(4A/	.	.	(4e/	.	.	4A/	.	.	8bb\	.	.
.	.	.	.	.	.	.	.	.	.	.	.	8a\J)	.	.	.	.	.	.	.	.	.	.	.	8aa\J	.	.
!	!	!	!	!	!	!	!	!	!LO:SIC:s=4.f 4.d/)	!	!	!	!	!	!	!	!	!	!	!	!	!	!	!	!	!
4.D/	.	.	4.D\	.	.	(16A/LL	.	.	4.f 4.d/))	.	.	(4ff\	.	.	4.F/)	.	.	4.d/)	.	.	(16A/LL	.	.	4fff\	.	.
.	.	.	.	.	.	16G/JJ	.	.	.	.	.	.	.	.	.	.	.	.	.	.	16G/JJ	.	.	.	.	.
.	.	.	.	.	.	4F/)	.	.	.	.	.	.	.	.	.	.	.	.	.	.	4F/)	.	.	.	.	.
.	.	.	.	.	.	.	.	.	.	.	.	8ee\)	.	.	.	.	.	.	.	.	.	.	.	8eee\)	.	.
!	!	!	!	!	!	!LO:LB:g=original	!	!	!	!	!	!	!	!	!LO:LB:g=original	!	!	!LO:LB:g=original	!	!	!	!	!	!LO:LB:g=original	!	!
=11	=11	=11	=11	=11	=11	=11	=11	=11	=11	=11	=11	=11	=11	=11	=11	=11	=11	=11	=11	=11	=11	=11	=11	=11	=11	=11
!	!	!	!	!	!	!	!	!	!	!	!	!	!	!	!	!	!	!LO:TX:b:t=2:mod=	!	!	!	!	!	!	!	!
2.GG/	.	.	2.GG/	.	.	8r	.	.	8r	.	.	(8dd\L	.	.	2.r	.	.	2.r	.	.	8r	.	.	(8ddd\L	.	.
!	!	!	!	!	!	!	!	!	!LO:SIC:s=(4f 4d/	!	!	!	!	!	!	!	!	!	!	!	!	!	!	!	!	!
.	.	.	.	.	.	4B/	.	.	(4f (4d/	.	.	8b\	.	.	.	.	.	.	.	.	(4B/	.	.	8bb\	.	.
.	.	.	.	.	.	.	.	.	.	.	.	8a\J)	.	.	.	.	.	.	.	.	.	.	.	8aa\J	.	.
!	!	!	!	!	!	!	!	!	!LO:SIC:s=4.e 4.c/)	!	!	!	!	!	!	!	!	!	!	!	!	!	!	!	!	!
.	.	.	.	.	.	(16c/LL	.	.	4.e 4.c/))	.	.	4.g/	.	.	.	.	.	.	.	.	16c/LL	.	.	4.gg\)	.	.
.	.	.	.	.	.	16A/JJ	.	.	.	.	.	.	.	.	.	.	.	.	.	.	16A/JJ	.	.	.	.	.
.	.	.	.	.	.	4G/)	.	.	.	.	.	.	.	.	.	.	.	.	.	.	4G/)	.	.	.	.	.
!LO:LB:g=original	!	!	!	!	!	!	!	!	!LO:LB:g=original	!	!	!	!	!	!	!	!	!	!	!	!LO:LB:g=original	!	!	!	!	!
=12	=12	=12	=12	=12	=12	=12	=12	=12	=12	=12	=12	=12	=12	=12	=12	=12	=12	=12	=12	=12	=12	=12	=12	=12	=12	=12
!	!	!	!	!	!	!	!	!	!LO:SIC:s=(4f 4A/	!	!	!	!	!	!	!	!	!	!	!	!	!	!	!	!	!
4.GG/	.	.	4.GG/	.	.	(4c\	.	.	(4f (4A/	.	.	(4a/	.	.	2.r	.	.	2.r	.	.	(4A/	.	.	(4aa\	.	.
!	!	!	!	!	!	!	!	!	!LO:SIC:s=8g 8B/)	!	!	!	!	!	!	!	!	!	!	!	!	!	!	!	!	!
.	.	.	.	.	.	8d\)	.	.	8g 8B/))	.	.	8b/)	.	.	.	.	.	.	.	.	8B/	.	.	8bb\)	.	.
4.C/	.	.	4.C/	.	.	(16c/LL	.	.	4.e 4.c/	.	.	4cc\	.	.	.	.	.	.	.	.	16c/LL	.	.	4ccc\	.	.
.	.	.	.	.	.	16A/JJ	.	.	.	.	.	.	.	.	.	.	.	.	.	.	16A/JJ	.	.	.	.	.
.	.	.	.	.	.	4G/)	.	.	.	.	.	.	.	.	.	.	.	.	.	.	4G/)	.	.	.	.	.
.	.	.	.	.	.	.	.	.	.	.	.	8r	.	.	.	.	.	.	.	.	.	.	.	8r	.	.
!	!	!	!LO:LB:g=original	!	!	!	!	!	!	!	!	!LO:LB:g=original	!	!	!	!	!	!	!	!	!	!	!	!	!	!
=13	=13	=13	=13	=13	=13	=13	=13	=13	=13	=13	=13	=13	=13	=13	=13	=13	=13	=13	=13	=13	=13	=13	=13	=13	=13	=13
*	*	*	*	*	*	*tremolo	*	*	*	*	*	*	*	*	*	*	*	*	*	*	*	*	*	*	*	*
!	!	!	!	!	!	!LO:TX:a:t=...:mod=	!	!	!	!	!	!	!	!	!	!	!	!	!	!	!LO:TX:a:t=1.:mod=	!	!	!LO:TX:a:t=1.:mod=	!	!
!	!	!	!	!	!	!LO:SIC:s=8eL 8B'\	!	!	!LO:SIC:s=8gL 8B'/	!	!	!	!	!	!	!	!	!	!	!	!	!	!	!	!	!
8E\	.	.	8E\	.	.	8eL 8B'y\	.	.	8gL 8B/	.	.	8b'/L	.	.	8BnX/	.	p	8g\	p	p	2.r	.	.	2.r	.	.
!	!	!	!	!	!	!	!	!	!LO:SIC:s=8e 8B'/	!	!	!	!	!	!	!	!	!	!	!	!	!	!	!	!	!
8r	.	.	8r	.	.	8e 8B'\	.	.	8e 8B/	.	.	8a'/	.	.	8r	.	.	8r	.	.	.	.	.	.	.	.
!	!	!	!	!	!	!	!	!	!LO:SIC:s=8eJ 8B'/	!	!	!	!	!	!	!	!	!	!	!	!	!	!	!	!	!
8r	.	.	8r	.	.	8eJ 8B'\	.	.	8eJ 8B/	.	.	8g'/J	.	.	8r	.	.	8r	.	.	.	.	.	.	.	.
*	*	*	*	*	*	*	*	*	*tremolo	*	*	*tremolo	*	*	*	*	*	*	*	*	*	*	*	*	*	*
!	!	!	!	!	!	!LO:TX:a:t=...:mod=	!	!	!LO:TX:b:t=...:mod=	!	!	!LO:TX:b:t=...:mod=	!	!	!	!	!	!	!	!	!	!	!	!	!	!
!	!	!	!	!	!	!LO:SIC:s=8eL 8A'\	!	!	!LO:SIC:s=8e'/L	!	!	!LO:SIC:s=8f#X'/L	!	!	!	!	!	!	!	!	!	!	!	!	!	!
8r	.	.	8r	.	.	8eL 8A'y\	.	.	8e'y/L	.	.	8f#X'y/L	.	.	4r	.	.	4r	.	.	.	.	.	.	.	.
8E\L	.	.	8E\L	.	.	8e 8A'\	.	.	8e'/	.	.	8f#'/	.	.	.	.	.	.	.	.	.	.	.	.	.	.
8E\J	.	.	8E\J	.	.	8eJ 8A'\	.	.	8e'/J	.	.	8f#'/J	.	.	8r	.	.	8r	.	.	.	.	.	.	.	.
*	*	*	*	*	*	*Xtremolo	*	*	*	*	*	*Xtremolo	*	*	*	*	*	*	*	*	*	*	*	*	*	*
=14	=14	=14	=14	=14	=14	=14	=14	=14	=14	=14	=14	=14	=14	=14	=14	=14	=14	=14	=14	=14	=14	=14	=14	=14	=14	=14
!	!	!	!	!	!	!LO:TX:b:i:t=[sim.]	!	!	!LO:TX:b:i:t=[sim.]	!	!	!	!	!	!	!	!	!LO:TX:b:t=5:mod=	!	!	!	!	!	!	!	!
4E\	.	.	4E\	.	.	8A/L	.	.	8e/L	.	.	8f#X'/L	.	.	2.r	.	.	2.r	.	.	(8f#\L	.	.	(8ff#X\L	.	.
.	.	.	.	.	.	8B/	.	.	8e/	.	.	8g'/	.	.	.	.	.	.	.	.	8g\	.	.	8gg\	.	.
8r	.	.	8r	.	.	8c/J	.	.	8e/J	.	.	8a'/J	.	.	.	.	.	.	.	.	8a\J	.	.	8aa\J	.	.
*	*	*	*	*	*	*	*	*	*Xtremolo	*	*	*	*	*	*	*	*	*	*	*	*	*	*	*	*	*
8r	.	.	8r	.	.	8B/L	.	.	8e/L	.	.	8g'/L	.	.	.	.	.	.	.	.	4b\)	.	.	4.bb\)	.	.
8E\L	.	.	8E\L	.	.	8B/	.	.	8e/	.	.	8g'/	.	.	.	.	.	.	.	.	.	.	.	.	.	.
8E\J	.	.	8E\J	.	.	8A/J	.	.	8d#X/J	.	.	8f#'/J	.	.	.	.	.	.	.	.	8r	.	.	.	.	.
!LO:LB:g=original	!	!	!	!	!	!LO:LB:g=original	!	!	!	!	!	!	!	!	!	!	!	!	!	!	!	!	!	!LO:LB:g=original	!	!
=15	=15	=15	=15	=15	=15	=15	=15	=15	=15	=15	=15	=15	=15	=15	=15	=15	=15	=15	=15	=15	=15	=15	=15	=15	=15	=15
!	!	!	!	!	!	!	!	!	!	!	!	!	!	!	!	!	!	!	!	!	!LO:TX:a:t=2:mod=	!	!	!LO:TX:a:t=2:mod=	!	!
4.E\	.	.	4.E\	.	.	8G/L	.	.	8e/L	.	.	8e'/L	.	.	2.r	.	.	2.r	.	.	2.r	.	.	2.r	.	.
.	.	.	.	.	.	8B/	.	.	8e/	.	.	8g'/	.	.	.	.	.	.	.	.	.	.	.	.	.	.
.	.	.	.	.	.	8e/J	.	.	8g/J	.	.	8b'/J	.	.	.	.	.	.	.	.	.	.	.	.	.	.
*	*	*	*	*	*	*tremolo	*	*	*tremolo	*	*	*	*	*	*	*	*	*	*	*	*	*	*	*	*	*
!	!	!	!	!	!	!LO:TX:b:t=...:mod=	!	!	!	!	!	!	!	!	!	!	!	!	!	!	!	!	!	!	!	!
!	!	!	!	!	!	!LO:SIC:s=8B/L	!	!	!	!	!	!	!	!	!	!	!	!	!	!	!	!	!	!	!	!
4.G\	.	.	4.G\	.	.	8B'y/L	.	.	8dn/L	.	.	8b'/L	.	.	.	.	.	.	.	.	.	.	.	.	.	.
.	.	.	.	.	.	8B'/	.	.	8d/	.	.	8a'/	.	.	.	.	.	.	.	.	.	.	.	.	.	.
.	.	.	.	.	.	8B'/J	.	.	8d/J	.	.	8g'/J	.	.	.	.	.	.	.	.	.	.	.	.	.	.
*	*	*	*	*	*	*	*	*	*Xtremolo	*	*	*	*	*	*	*	*	*	*	*	*	*	*	*	*	*
!	!	!	!	!	!	!	!	!	!LO:LB:g=original	!	!	!	!	!	!	!	!	!	!	!	!	!	!	!	!	!
=16	=16	=16	=16	=16	=16	=16	=16	=16	=16	=16	=16	=16	=16	=16	=16	=16	=16	=16	=16	=16	=16	=16	=16	=16	=16	=16
2.GG/	.	.	2.GG/	.	.	8c/L	.	.	8e/L	.	.	8g'/L	.	.	2.r	.	.	2.r	.	.	2.r	.	.	2.r	.	.
.	.	.	.	.	.	8c/	.	.	8e/	.	.	8g'/	.	.	.	.	.	.	.	.	.	.	.	.	.	.
.	.	.	.	.	.	8c/J	.	.	8d/J	.	.	8f#X'/J	.	.	.	.	.	.	.	.	.	.	.	.	.	.
*	*	*	*	*	*	*	*	*	*tremolo	*	*	*tremolo	*	*	*	*	*	*	*	*	*	*	*	*	*	*
!	!	!	!	!	!	!	!	!	!	!	!	!LO:TX:b:t=...:mod=	!	!	!	!	!	!	!	!	!	!	!	!	!	!
!	!	!	!	!	!	!	!	!	!	!	!	!LO:SIC:s=8g'/L	!	!	!	!	!	!	!	!	!	!	!	!	!	!
.	.	.	.	.	.	8B/L	.	.	8d/L	.	.	8g'y/L	.	.	.	.	.	.	.	.	.	.	.	.	.	.
.	.	.	.	.	.	8B/	.	.	8d/	.	.	8g'/	.	.	.	.	.	.	.	.	.	.	.	.	.	.
.	.	.	.	.	.	8B/J	.	.	8d/J	.	.	8g'/J	.	.	.	.	.	.	.	.	.	.	.	.	.	.
!	!	!	!LO:LB:g=original	!	!	!	!	!	!	!	!	!LO:LB:g=original	!	!	!	!	!	!	!	!	!LO:LB:g=original	!	!	!	!	!
=17	=17	=17	=17	=17	=17	=17	=17	=17	=17	=17	=17	=17	=17	=17	=17	=17	=17	=17	=17	=17	=17	=17	=17	=17	=17	=17
!	!	!	!	!	!	!	!	!	!	!	!	!LO:SIC:s=8f#X'/L	!	!	!	!	!	!	!	!	!	!	!LO:DY:ed=brack	!	!	!
2.BB/	.	.	2.BB/	.	.	8B/L	.	.	8d/L	.	.	8f#X/L	.	.	2.r	.	.	2.r	.	.	(8dd\L	.	mf	(8ddd\L	mf	mf
!	!	!	!	!	!	!	!	!	!	!	!	!LO:SIC:s=8f#'/	!	!	!	!	!	!	!	!	!	!	!	!	!	!
.	.	.	.	.	.	8B/	.	.	8d/	.	.	8f#/	.	.	.	.	.	.	.	.	8cc#\	.	.	8ccc#X\	.	.
!	!	!	!	!	!	!	!	!	!	!	!	!LO:SIC:s=8f#'/J	!	!	!	!	!	!	!	!	!	!	!	!	!	!
.	.	.	.	.	.	8B/J	.	.	8d/J	.	.	8f#/J	.	.	.	.	.	.	.	.	8b\J	.	.	8bb\J	.	.
!	!	!	!	!	!	!	!	!	!	!	!	!LO:SIC:s=8g'/L	!	!	!	!	!	!	!	!	!	!	!	!	!	!
.	.	.	.	.	.	8A#X/L	.	.	8c#X/L	.	.	8g/L	.	.	.	.	.	.	.	.	16ee\LL	.	.	16eee\LL	.	.
.	.	.	.	.	.	.	.	.	.	.	.	.	.	.	.	.	.	.	.	.	16cc#\JJ	.	.	16ccc#\JJ	.	.
!	!	!	!	!	!	!	!	!	!	!	!	!LO:SIC:s=8g'/	!	!	!	!	!	!	!	!	!	!	!	!	!	!
.	.	.	.	.	.	8A#/	.	.	8c#/	.	.	8g/	.	.	.	.	.	.	.	.	4a#X\)	.	.	4aa#X\)	.	.
!	!	!	!	!	!	!	!	!	!	!	!	!LO:SIC:s=8g'/J	!	!	!	!	!	!	!	!	!	!	!	!	!	!
.	.	.	.	.	.	8A#/J	.	.	8c#/J	.	.	8g/J	.	.	.	.	.	.	.	.	.	.	.	.	.	.
*	*	*	*	*	*	*	*	*	*Xtremolo	*	*	*Xtremolo	*	*	*	*	*	*	*	*	*	*	*	*	*	*
=18	=18	=18	=18	=18	=18	=18	=18	=18	=18	=18	=18	=18	=18	=18	=18	=18	=18	=18	=18	=18	=18	=18	=18	=18	=18	=18
4.BB/	.	.	4.BB/	.	.	8A#X/L	.	.	8e/L	.	.	8g'/L	.	.	2.r	.	.	2.r	.	.	(8cc#\L	.	.	(8ccc#X\L	.	.
.	.	.	.	.	.	8A#/	.	.	8d/	.	.	8f#X'/	.	.	.	.	.	.	.	.	8dd\	<	<	8ddd\	<	<
.	.	.	.	.	.	8A#/J	.	.	8c#X/J	.	.	8e'/J	.	.	.	.	.	.	.	.	8ee\J	.	.	8eee\J)	.	.
*	*	*	*	*	*	*	*	*	*	*	*	*tremolo	*	*	*	*	*	*	*	*	*	*	*	*	*	*
!	!	!	!	!	!	!	!	!	!	!	!	!LO:TX:a:t=...:mod=	!	!	!	!	!	!	!	!	!	!	!	!	!	!
!	!	!	!	!	!	!	!	!	!	!	!	!LO:SIC:s=8b'\L	!	!	!	!	!	!	!	!	!	!	!	!	!	!
(4BB/	<	<	4BB/	<	<	8B/L	<	<	8f#XL 8d/	.	<	8b'y\L	<	<	.	.	.	.	.	.	4.ff#\)	[	[	4.fff#X\	[	[
.	.	.	.	.	.	8B/	.	.	8f# 8d/	<	.	8b'\	.	.	.	.	.	.	.	.	.	.	.	.	.	.
8D/)	[[	[[	8D/	[	[[	8B/J	[[	[[	8bJ 8f#/	[[	[[	8b'\J	[[	[[	.	.	.	.	.	.	.	.	.	.	.	.
*	*	*	*	*	*	*	*	*	*	*	*	*Xtremolo	*	*	*	*	*	*	*	*	*	*	*	*	*	*
!LO:LB:g=original	!	!	!	!	!	!	!	!	!LO:LB:g=original	!	!	!	!	!	!	!	!	!	!	!	!	!	!	!	!	!
=19	=19	=19	=19	=19	=19	=19	=19	=19	=19	=19	=19	=19	=19	=19	=19	=19	=19	=19	=19	=19	=19	=19	=19	=19	=19	=19
!	!	!LO:DY:ed=brack	!	!	!LO:DY:ed=brack	!	!	!	!	!	!	!	!	!	!	!	!	!	!	!	!	!	!	!	!	!
8C#X/L	.	mf	8C#X/L	.	mf	8B/L	mf	mf	8bL 8g/	mf	mf	(8gg\L	mf	mf	4.BnX/	.	mf	(4.bnX\	mf	mf	(8gg\L	.	.	(8ggg\L	.	.
8D/	.	.	8D/	.	.	8B/	.	.	8b 8f#X/	.	.	8ff#X\	.	.	.	.	.	.	.	.	8ff#\	.	.	8fff#X\	.	.
8E/J	.	.	8E/J	.	.	8B/J	.	.	8bJ 8g/	.	.	8ee\J)	.	.	.	.	.	.	.	.	8ee\J	.	.	8eee\J	.	.
*	*	*	*	*	*	*Xtremolo	*	*	*tremolo	*	*	*	*	*	*	*	*	*	*	*	*	*	*	*	*	*
!	!	!	!	!	!	!	!	!	!	!	!	!	!	!	!	!	!	!	!	!	!LO:SIC:v:s=4b\	!	!	!	!	!
4.G\	.	.	4.G\	.	.	8B/L	.	.	8bL 8e/	.	.	(4b\	.	.	(4B/	.	.	4.e\)	.	.	4g\	.	.	4bb\	.	.
.	.	.	.	.	.	8B/	.	.	8b 8e/	.	.	.	.	.	.	.	.	.	.	.	.	.	.	.	.	.
.	.	.	.	.	.	8c#X/J	.	.	8bJ 8e/	.	.	8ee\)	.	.	8c#X/)	.	.	.	.	.	8ee\	.	.	8eee\	.	.
*	*	*	*	*	*	*	*	*	*Xtremolo	*	*	*	*	*	*	*	*	*	*	*	*	*	*	*	*	*
!	!	!	!	!	!	!LO:LB:g=original	!	!	!	!	!	!	!	!	!	!	!	!	!	!	!LO:LB:g=original	!	!	!LO:LB:g=original	!	!
=20	=20	=20	=20	=20	=20	=20	=20	=20	=20	=20	=20	=20	=20	=20	=20	=20	=20	=20	=20	=20	=20	=20	=20	=20	=20	=20
4.F#X\	.	.	4.F#X\	.	.	8f#XL 8d\	.	.	8bL 8d/	.	.	(4dd\	.	.	(4d/	.	.	(4f#X\	.	.	4dd\	.	.	4ddd\	.	.
.	.	.	.	.	.	8f# 8d\	.	.	8b 8d/	.	.	.	.	.	.	.	.	.	.	.	.	.	.	.	.	.
.	.	.	.	.	.	8eJ 8c#X\	.	.	8a#XJ 8e/	.	.	16cc#X\LL	.	.	8c#X/	.	.	8e\	.	.	16cc#\LL	.	>	16ccc#X\LL	>	>
.	.	.	.	.	.	.	.	.	.	.	.	16a#X\JJ)	.	.	.	.	.	.	.	.	16a#X\JJ	.	.	16aa#X\JJ	.	.
4BB/	.	.	4F# 4BB/	.	.	4d 4B\	.	.	8bL 8d/	.	>	8b\L	>	>	4BnX/)	.	.	4d/)	.	.	4b\)	.	]]	4bb\)	]	]]
.	.	.	.	.	.	.	.	.	8b/	>	.	8bb\	.	.	.	.	.	.	.	.	.	.	.	.	.	.
8r	.	.	8r	.	.	8r	.	.	8b/J	]]	]]	8bb\J	]]	]]	8r	.	.	8r	.	.	8r	.	.	8r	.	.
!	!	!	!LO:LB:g=original	!	!	!	!	!	!	!	!	!LO:LB:g=original	!	!	!LO:LB:g=original	!	!	!LO:LB:g=original	!	!	!	!	!	!	!	!
=21	=21	=21	=21	=21	=21	=21	=21	=21	=21	=21	=21	=21	=21	=21	=21	=21	=21	=21	=21	=21	=21	=21	=21	=21	=21	=21
*	*	*	*	*	*	*	*	*	*tremolo	*	*	*tremolo	*	*	*	*	*	*	*	*	*	*	*	*	*	*
!LO:TX:a:t=8:mod=	!	!	!LO:TX:a:t=4:mod=	!	!	!	!	!	!	!	!	!	!	!	!	!	!	!LO:TX:b:t=8:mod=	!	!	!	!	!	!LO:TX:a:t=1.:mod=	!	!
2.r	.	.	2.r	.	.	8an\L	mf	mf	8b\L	p	p	8bb\L	p	p	2.r	.	.	2.r	.	.	8an/L	p	p	2.r	.	.
.	.	.	.	.	.	(16d#X\L	.	.	8b\	.	.	8bb\	.	.	.	.	.	.	.	.	(16d#X/L	.	.	.	.	.
.	.	.	.	.	.	16e\J	.	.	.	.	.	.	.	.	.	.	.	.	.	.	16e/J	.	.	.	.	.
.	.	.	.	.	.	8f#X\J)	.	.	8b\J	.	.	8bb\J	.	.	.	.	.	.	.	.	8f#/J)	.	.	.	.	.
.	.	.	.	.	.	(16d#\LL	.	.	8b\L	.	.	8bb\L	.	.	.	.	.	.	.	.	(16d#/LL	.	.	.	.	.
.	.	.	.	.	.	16cn\J	.	.	.	.	.	.	.	.	.	.	.	.	.	.	16cnX/J	.	.	.	.	.
.	.	.	.	.	.	8B\)	.	.	8b\	.	.	8bb\	.	.	.	.	.	.	.	.	8B/)	.	.	.	.	.
.	.	.	.	.	.	(16d#\L	.	.	8b\J	.	.	8bb\J	.	.	.	.	.	.	.	.	(16d#/L	.	.	.	.	.
.	.	.	.	.	.	16f#\JJ	.	.	.	.	.	.	.	.	.	.	.	.	.	.	16f#/JJ	.	.	.	.	.
!	!	!	!	!	!	!	!	!	!LO:LB:g=original	!	!	!	!	!	!	!	!	!	!	!	!	!	!	!	!	!
=22	=22	=22	=22	=22	=22	=22	=22	=22	=22	=22	=22	=22	=22	=22	=22	=22	=22	=22	=22	=22	=22	=22	=22	=22	=22	=22
2.r	.	.	2.r	.	.	4.a\)	.	.	8b\L	.	.	8bb\L	.	.	2.r	.	.	2.r	.	.	4.a\	.	.	4r	.	.
.	.	.	.	.	.	.	.	.	8b\	.	.	8bb\	.	.	.	.	.	.	.	.	.	.	.	.	.	.
.	.	.	.	.	.	.	.	.	8b\J	.	.	8bb\J	.	.	.	.	.	.	.	.	.	.	.	8r	.	.
*	*	*	*	*	*	*	*	*	*Xtremolo	*	*	*Xtremolo	*	*	*	*	*	*	*	*	*	*	*	*	*	*
!	!	!	!	!	!	!	!	!	!	!	!	!	!	!	!	!	!	!	!	!	!	!	!	!	!	!LO:DY:ed=brack
.	.	.	.	.	.	4g#X\	.	.	8b'\L	.	.	8bb'\L	.	.	.	.	.	.	.	.	4g#\)	.	.	(8bb\L	.	p
!	!	!	!	!	!	!	!	!	!LO:SIC:s=8cc'\	!	!	!LO:SIC:s=8ccc'\	!	!	!	!	!	!	!	!	!	!	!	!LO:SIC:s=8ccc\	!	!
.	.	.	.	.	.	.	.	.	8ccn'\	.	.	8cccn'\	.	.	.	.	.	.	.	.	.	.	.	8cccn\)	.	.
!	!	!	!	!	!	!	!	!	!	!	!	!	!	!	!	!	!	!	!	!	!	!	!	!LO:SIC:s=8ddd\J)	!	!
.	.	.	.	.	.	8r	.	.	8dd'\J	.	.	8ddd'\J	.	.	.	.	.	.	.	.	8r	.	.	8ddd\J	.	.
!	!	!	!	!	!	!LO:LB:g=original	!	!	!	!	!	!	!	!	!	!	!	!	!	!	!LO:LB:g=original	!	!	!	!	!
=23	=23	=23	=23	=23	=23	=23	=23	=23	=23	=23	=23	=23	=23	=23	=23	=23	=23	=23	=23	=23	=23	=23	=23	=23	=23	=23
*	*	*	*	*	*	*	*	*	*tremolo	*	*	*tremolo	*	*	*	*	*	*	*	*	*	*	*	*	*	*
2.r	.	.	2.r	.	.	8b\L	.	.	8dd\L	.	.	8ddd\L	.	.	2.r	.	.	2.r	.	.	8b'\L	.	.	(4.ddd\	.	.
.	.	.	.	.	.	(16g#X\L	.	.	8dd\	.	.	8ddd\	.	.	.	.	.	.	.	.	(16g#\L	.	.	.	.	.
.	.	.	.	.	.	16a\J	.	.	.	.	.	.	.	.	.	.	.	.	.	.	16a\J	.	.	.	.	.
.	.	.	.	.	.	8b\J)	.	.	8dd\J	.	.	8ddd\J	.	.	.	.	.	.	.	.	8b\J)	.	.	.	.	.
*	*	*	*	*	*	*	*	*	*Xtremolo	*	*	*Xtremolo	*	*	*	*	*	*	*	*	*	*	*	*	*	*
!	!	!	!	!	!	!	!	!	!	!	!	!LO:SIC:s=8ddd#X'\L	!	!	!	!	!	!	!	!	!	!	!	!	!	!
.	.	.	.	.	.	(16g#\LL	.	.	8dd#X'\L	.	.	8ddd#X\L	.	.	.	.	.	.	.	.	(16g#/LL	.	.	8ddd#X\L	.	.
!	!	!	!	!	!	!LO:SIC:s=16f\J	!	!	!	!	!	!	!	!	!	!	!	!	!	!	!	!	!	!	!	!
.	.	.	.	.	.	16fn\J	.	.	.	.	.	.	.	.	.	.	.	.	.	.	16f/J	.	.	.	.	.
!	!	!	!	!	!	!	!	!	!	!	!	!LO:SIC:s=8eee'\	!	!	!	!	!	!	!	!	!	!	!	!	!	!
.	.	.	.	.	.	8e\)	.	.	8ee'\	.	.	8eee\	.	.	.	.	.	.	.	.	8e/)	.	.	8eee\)	.	.
!	!	!	!	!	!	!	!	!	!	!	!	!LO:SIC:s=8eee'\J	!	!	!	!	!	!	!	!	!	!	!	!	!	!
.	.	.	.	.	.	(16g#\L	.	.	8ee'\J	.	.	8eee\J	.	.	.	.	.	.	.	.	(<16g#/L	.	.	8bb'\J	.	.
.	.	.	.	.	.	16b\JJ	.	.	.	.	.	.	.	.	.	.	.	.	.	.	16b/JJ	.	.	.	.	.
!	!	!	!	!	!	!	!	!	!	!	!	!	!	!	!	!	!	!	!	!	!	!	!	!LO:LB:g=original	!	!
=24	=24	=24	=24	=24	=24	=24	=24	=24	=24	=24	=24	=24	=24	=24	=24	=24	=24	=24	=24	=24	=24	=24	=24	=24	=24	=24
*	*	*	*	*	*	*	*	*	*tremolo	*	*	*tremolo	*	*	*	*	*	*	*	*	*	*	*	*	*	*
2.r	.	.	2.r	.	.	8dd\L)	.	.	8ee\L	.	.	8eee\L	.	.	2.r	.	.	2.r	.	.	8dd\L)	.	.	(4.eee\	.	.
.	.	.	.	.	.	(16b\L	.	.	8ee\	.	.	8eee\	.	.	.	.	.	.	.	.	(16b\L	.	.	.	.	.
.	.	.	.	.	.	16a\	.	.	.	.	.	.	.	.	.	.	.	.	.	.	16a\	.	.	.	.	.
.	.	.	.	.	.	16g#X\	.	.	8ee\J	.	.	8eee\J	.	.	.	.	.	.	.	.	16g#\	.	.	.	.	.
.	.	.	.	.	.	16a\JJ)	.	.	.	.	.	.	.	.	.	.	.	.	.	.	16a\JJ	.	.	.	.	.
.	.	.	.	.	.	(4g#\	.	.	8ee\L	.	.	8eee\L	.	.	.	.	.	.	.	.	4g#/	.	.	4bb\)	.	.
.	.	.	.	.	.	.	.	.	8ee\	.	.	8eee\	.	.	.	.	.	.	.	.	.	.	.	.	.	.
.	.	.	.	.	.	8f\)	.	.	8ee\J	.	.	8eee\J	.	.	.	.	.	.	.	.	8f/	.	.	8r	.	.
*	*	*	*	*	*	*	*	*	*Xtremolo	*	*	*Xtremolo	*	*	*	*	*	*	*	*	*	*	*	*	*	*
!	!	!	!	!	!	!	!	!	!	!	!	!LO:LB:g=original	!	!	!	!	!	!	!	!	!	!	!	!	!	!
=25	=25	=25	=25	=25	=25	=25	=25	=25	=25	=25	=25	=25	=25	=25	=25	=25	=25	=25	=25	=25	=25	=25	=25	=25	=25	=25
!	!	!	!	!	!	!	!	!	!	!	!	!	!	!	!	!	!	!	!	!	!	!	!	!LO:TX:a:t=2:mod=	!	!
2.r	.	.	8e\	p	p	8e\	.	.	8ee\L	.	.	8eee\L	.	.	2.r	.	.	2.r	.	.	8e'/)	.	.	2.r	.	.
.	.	.	4e^\	.	.	4e^\	.	.	8b 8g#X\	.	.	8ee\	.	.	.	.	.	.	.	.	4e^/	.	.	.	.	.
.	.	.	.	.	.	.	.	.	8bJ 8g#\	.	.	8ee\J	.	.	.	.	.	.	.	.	.	.	.	.	.	.
*	*	*	*	*	*	*	*	*	*tremolo	*	*	*	*	*	*	*	*	*	*	*	*	*	*	*	*	*
.	.	.	(16f\LL	.	.	(16f\LL	.	.	8bL 8a/	.	.	8dd\L	.	.	.	.	.	.	.	.	(16f/LL	.	.	.	.	.
.	.	.	16e\JJ	.	.	16e\JJ	.	.	.	.	.	.	.	.	.	.	.	.	.	.	16e/JJ	.	.	.	.	.
.	.	.	4d\)	.	.	4d\)	.	.	8b 8a/	.	.	8ff\	.	.	.	.	.	.	.	.	4d/)	.	.	.	.	.
.	.	.	.	.	.	.	.	.	8bJ 8a/	.	.	8ff\J	.	.	.	.	.	.	.	.	.	.	.	.	.	.
*	*	*	*	*	*	*	*	*	*Xtremolo	*	*	*	*	*	*	*	*	*	*	*	*	*	*	*	*	*
!	!	!	!	!	!	!LO:LB:g=original	!	!	!LO:LB:g=original	!	!	!	!	!	!	!	!	!	!	!	!LO:LB:g=original	!	!	!	!	!
=26	=26	=26	=26	=26	=26	=26	=26	=26	=26	=26	=26	=26	=26	=26	=26	=26	=26	=26	=26	=26	=26	=26	=26	=26	=26	=26
2.r	.	.	8e\	.	.	8e\	.	.	8bL 8g#X/	.	.	8ee/L	.	.	2.r	.	.	2.r	.	.	8e'/	.	.	2.r	.	.
.	.	.	4E^\	.	.	4E^/	.	.	8G#X/	.	.	8e 8B/	.	.	.	.	.	.	.	.	4E^/	.	.	.	.	.
.	.	.	.	.	.	.	.	.	8G#/J	.	.	8eJ 8B/	.	.	.	.	.	.	.	.	.	.	.	.	.	.
.	.	.	(16F\LL	.	.	(16F/LL	.	.	8A/L	.	.	8dL 8B/	.	.	.	.	.	.	.	.	(16F/LL	.	.	.	.	.
.	.	.	16E\JJ	.	.	16E/JJ	.	.	.	.	.	.	.	.	.	.	.	.	.	.	16E/JJ	.	.	.	.	.
.	.	.	4D\)	.	.	4D/)	.	.	8B/	.	.	8f 8A/	.	.	.	.	.	.	.	.	4D/	.	.	.	.	.
.	.	.	.	.	.	.	.	.	8B/J	.	.	8fJ 8A/	.	.	.	.	.	.	.	.	.	.	.	.	.	.
=27	=27	=27	=27	=27	=27	=27	=27	=27	=27	=27	=27	=27	=27	=27	=27	=27	=27	=27	=27	=27	=27	=27	=27	=27	=27	=27
!	!	!	!	!	!	!	!	!	!LO:SIC:s=8B/	!	!	!	!	!	!	!	!	!	!	!	!	!	!	!	!	!
2.r	.	.	4E\	.	.	4E/	.	.	8B/L	.	.	8e 8G#X/	.	.	2.r	.	.	2.r	.	.	4E/)	.	.	4r	.	.
!	!	!	!	!	!	!	!	!	!LO:MO:null:mod=*tremolo	!	!	!	!	!	!	!	!	!	!	!	!	!	!	!	!	!
*	*	*	*	*	*	*	*	*	*	*	*	*tremolo	*	*	*	*	*	*	*	*	*	*	*	*	*	*
!	!	!	!	!	!	!	!	!	!LO:SIC:s=8e/L	!	!	!	!	!	!	!	!	!	!	!	!	!	!	!	!	!
.	.	.	.	.	.	.	.	.	8e/	.	.	8ee\L	.	.	.	.	.	.	.	.	.	.	.	.	.	.
.	.	.	8r	.	.	8r	.	.	8e/J	.	.	8ee\J	.	.	.	.	.	.	.	.	8r	.	.	8r	.	.
*	*	*	*	*	*	*	*	*	*tremolo	*	*	*	*	*	*	*	*	*	*	*	*	*	*	*	*	*
.	.	.	4r	.	.	4r	.	.	8f#X/L	.	.	8eeL 8e/	.	.	.	.	.	.	.	.	[4.ee\	p	p	[4.eee\	p	p
.	.	.	.	.	.	.	.	.	8f#/	.	.	8ee 8e/	.	.	.	.	.	.	.	.	.	.	.	.	.	.
.	.	.	8r	.	.	8r	.	.	8f#/J	.	.	8eeJ 8e/	.	.	.	.	.	.	.	.	.	.	.	.	.	.
!	!	!	!LO:LB:g=original	!	!	!	!	!	!	!	!	!	!	!	!	!	!	!	!	!	!	!	!	!LO:LB:g=original	!	!
=28	=28	=28	=28	=28	=28	=28	=28	=28	=28	=28	=28	=28	=28	=28	=28	=28	=28	=28	=28	=28	=28	=28	=28	=28	=28	=28
*	*	*	*	*	*	*tremolo	*	*	*	*	*	*	*	*	*	*	*	*	*	*	*	*	*	*	*	*
!	!	!	!LO:TX:a:t=1.:mod=	!	!	!	!	!	!	!	!	!	!	!	!	!	!	!	!	!	!	!	!	!	!	!
2.r	.	.	2.r	.	.	8f#X\L	<	<	8a/L	< <	< <	8ddL 8e/	<	<	2.r	.	.	2.r	.	.	4.ee\]	.	.	4.eee\]	.	.
.	.	.	.	.	.	8f#\	.	.	8a/	.	.	8dd 8e/	.	.	.	.	.	.	.	.	.	.	.	.	.	.
.	.	.	.	.	.	8f#\J	.	.	8a/J	.	.	8ddJ 8e/	.	.	.	.	.	.	.	.	.	.	.	.	.	.
.	.	.	.	.	.	8d\L	[ >	[ >	8g#X/L	[ [ >	[ [ >	8bL 8e/	[ >	[ >	.	.	.	.	.	.	4.ee\	.	.	4.eee\	.	.
.	.	.	.	.	.	8d\	.	.	8g#/	.	.	8b 8e/	.	.	.	.	.	.	.	.	.	.	.	.	.	.
.	.	.	.	.	.	8d\J	]]	]]	8g#/J	]]	]]	8bJ 8e/	]]	]]	.	.	.	.	.	.	.	.	.	.	.	.
!	!	!	!	!	!	!	!	!	!LO:LB:g=original	!	!	!LO:LB:g=original	!	!	!	!	!	!	!	!	!	!	!	!LO:LB:g=original	!	!
=29||	=29||	=29||	=29||	=29||	=29||	=29||	=29||	=29||	=29||	=29||	=29||	=29||	=29||	=29||	=29||	=29||	=29||	=29||	=29||	=29||	=29||	=29||	=29||	=29||	=29||	=29||
*k[f#c#g#]	*	*	*k[f#c#g#]	*	*	*k[f#c#g#]	*	*	*k[f#c#g#]	*	*	*k[f#c#g#]	*	*	*	*	*	*	*	*	*k[f#c#g#]	*	*	*k[f#c#g#]	*	*
*	*	*	*tremolo	*	*	*	*	*	*	*	*	*	*	*	*	*	*	*	*	*	*	*	*	*	*	*
!LO:TX:a:t=3:mod=	!	!	!	!	!	!	!	!	!	!	!	!	!	!	!	!	!	!LO:TX:b:t=4:mod=	!	!	!	!	!	!	!	!
2.r	.	.	8A\L	p	p	8eL 8A\	p	p	8a/L	p	p	8cc#L 8e/	p	p	2.r	.	.	2.r	.	.	(8cc#\L	p	p	(8ccc#\L	p	p
.	.	.	8A\	.	.	8e 8A\	.	.	8a/	.	.	8cc# 8e/	.	.	.	.	.	.	.	.	8a\	.	.	8aa\	.	.
.	.	.	8A\J	.	.	8eJ 8A\	.	.	8a/J	.	.	8cc#J 8e/	.	.	.	.	.	.	.	.	8b\J	.	.	8bb\J	.	.
.	.	.	8A\L	.	.	8f#L 8A\	.	.	8a/L	.	.	8cc#L 8f#/	.	.	.	.	.	.	.	.	8cc#\)	.	.	8ccc#\)	.	.
.	.	.	8A\	.	.	8f# 8A\	.	.	8a/	.	.	8cc# 8f#/	.	.	.	.	.	.	.	.	4f#^/	.	.	4ff#^\	.	.
.	.	.	8A\J	.	.	8f#J 8A\	.	.	8a/J	.	.	8cc#J 8f#/	.	.	.	.	.	.	.	.	.	.	.	.	.	.
!	!	!	!	!	!	!LO:LB:g=original	!	!	!	!	!	!	!	!	!	!	!	!	!	!	!LO:LB:g=original	!	!	!	!	!
=30	=30	=30	=30	=30	=30	=30	=30	=30	=30	=30	=30	=30	=30	=30	=30	=30	=30	=30	=30	=30	=30	=30	=30	=30	=30	=30
*	*	*	*rep	*	*	*	*	*	*	*	*	*	*	*	*	*	*	*	*	*	*	*	*	*	*	*
2.r	.	.	8A\L	.	.	8aL 8A\	.	.	8aL 8d#X/	.	.	8cc#L 8d#X/	.	.	2.r	.	.	2.r	.	.	(8cc#\L	.	.	(8ccc#\L	.	.
.	.	.	8A\	.	.	8a 8A\	.	.	8a 8d#/	.	.	8cc# 8d#/	.	.	.	.	.	.	.	.	8a\	.	.	8aa\	.	.
.	.	.	8A\J	.	.	8aJ 8A\	.	.	8aJ 8d#/	.	.	8cc#J 8d#/	.	.	.	.	.	.	.	.	8b\J	.	.	8bb\J	.	.
*	*	*	*	*	*	*Xtremolo	*	*	*Xtremolo	*	*	*Xtremolo	*	*	*	*	*	*	*	*	*	*	*	*	*	*
.	.	.	8A\L	.	.	8aL 8A\	.	.	8aL 8e/	.	.	8cc#L 8e/	.	.	.	.	.	.	.	.	8cc#\L	.	.	8ccc#\L	.	.
.	.	.	8A\	.	.	8a 8A\	.	.	8a 8f#/	.	.	8cc# 8f#/	.	.	.	.	.	.	.	.	8a\	.	.	8aa\	.	.
.	.	.	8A\J	.	.	8f#J 8A\	.	.	8aJ 8dn/	.	.	8cc#J 8dn/	.	.	.	.	.	.	.	.	8ff#\J)	.	.	8fff#\J)	.	.
*	*	*	*Xrep	*	*	*	*	*	*	*	*	*	*	*	*	*	*	*	*	*	*	*	*	*	*	*
=31	=31	=31	=31	=31	=31	=31	=31	=31	=31	=31	=31	=31	=31	=31	=31	=31	=31	=31	=31	=31	=31	=31	=31	=31	=31	=31
*	*	*	*rep	*	*	*tremolo	*	*	*tremolo	*	*	*tremolo	*	*	*	*	*	*	*	*	*	*	*	*	*	*
2.r	.	.	8A\L	.	.	8aL 8A\	.	.	8f#/L	.	.	8bL 8d/	.	.	2.r	.	.	2.r	.	.	(4b\	.	.	(4bb\	.	.
.	.	.	8A\	.	.	8a 8A\	.	.	8f#/	.	.	8b 8d/	.	.	.	.	.	.	.	.	.	.	.	.	.	.
.	.	.	8A\J	.	.	8aJ 8A\	.	.	8f#/J	.	.	8bJ 8d/	.	.	.	.	.	.	.	.	8cc#\	.	.	8ccc#\	.	.
.	.	.	8A\L	.	.	8aL 8A\	.	.	8f#/L	.	.	8bL 8d/	.	.	.	.	.	.	.	.	8dd\L	.	.	8ddd\L	.	.
.	.	.	8A\	.	.	8a 8A\	.	.	8f#/	.	.	8b 8d/	.	.	.	.	.	.	.	.	8f#\	.	.	8ff#\	.	.
.	.	.	8A\J	.	.	8aJ 8A\	.	.	8f#/J	.	.	8bJ 8d/	.	.	.	.	.	.	.	.	8cc#\J	.	.	8ccc#\J	.	.
*	*	*	*Xrep	*	*	*	*	*	*	*	*	*Xtremolo	*	*	*	*	*	*	*	*	*	*	*	*	*	*
!LO:LB:g=original	!	!	!	!	!	!	!	!	!	!	!	!	!	!	!	!	!	!	!	!	!	!	!	!LO:LB:g=original	!	!
=32	=32	=32	=32	=32	=32	=32	=32	=32	=32	=32	=32	=32	=32	=32	=32	=32	=32	=32	=32	=32	=32	=32	=32	=32	=32	=32
4r	.	.	8A\L	.	.	8aL 8A\	.	.	8eL 8d/	.	.	8bL 8a/	.	.	2.r	.	.	2.r	.	.	4.b\	.	.	4.bb\	.	.
.	.	.	8A\	.	.	8g# 8A\	.	.	8e 8d/	.	.	8b 8g#/	.	.	.	.	.	.	.	.	.	.	.	.	.	.
8r	.	.	8A\J	.	.	8f#J 8A\	.	.	8eJ 8d/	.	.	8bJ 8f#/	.	.	.	.	.	.	.	.	.	.	.	.	.	.
*	*	*	*	*	*	*	*	*	*	*	*	*tremolo	*	*	*	*	*	*	*	*	*	*	*	*	*	*
4.A\	p	p	8AA/L	.	.	8g#L 8A\	.	.	8eL 8d/	.	.	8bL 8g#/	.	.	.	.	.	.	.	.	4ee\)	.	.	4eee\)	.	.
.	.	.	8AA/	.	.	8g# 8A\	.	.	8e 8d/	.	.	8b 8g#/	.	.	.	.	.	.	.	.	.	.	.	.	.	.
.	.	.	8AA/J	.	.	8g#J 8A\	.	.	8eJ 8d/	.	.	8bJ 8g#/	.	.	.	.	.	.	.	.	8r	.	.	8r	.	.
*	*	*	*Xtremolo	*	*	*	*	*	*	*	*	*Xtremolo	*	*	*	*	*	*	*	*	*	*	*	*	*	*
!	!	!	!LO:LB:g=original	!	!	!	!	!	!LO:LB:g=original	!	!	!LO:LB:g=original	!	!	!	!	!	!	!	!	!LO:LB:g=original	!	!	!	!	!
=33	=33	=33	=33	=33	=33	=33	=33	=33	=33	=33	=33	=33	=33	=33	=33	=33	=33	=33	=33	=33	=33	=33	=33	=33	=33	=33
!	!LO:HP:b:t=cresc	!	!	!	!	!	!LO:HP:t=cresc	!	!	!	!	!	!	!	!	!	!	!	!	!	!	!	!	!	!	!
(4A\	<	.	(4A\	.	.	8aL 8A\	<	.	8eL 8c#/	.	.	(8cc#\L	.	.	(2.c#/	.	mf	(2.a\	mf	mf	(8cc#\L	.	<	(8ccc#\L	<	<
.	.	.	.	.	.	8a 8A\	.	.	8e 8c#/	.	.	8dd\	.	.	.	.	.	.	.	.	8dd\	<	.	8ddd\	.	.
!	!	!	!	!LO:HP:b:t=cresc	!	!	!	!	!	!	!	!	!	!	!	!	!	!	!	!	!	!	!	!	!	!
8G#\)	.	.	8G#\)	<	.	8aJ 8A\	.	.	8eJ 8c#/	.	.	8ee\J)	.	.	.	.	.	.	.	.	8ee\J	.	.	8eee\J)	.	.
!	!	!	!	!	!	!	!	!	!	!LO:HP:a:t=cresc	!	!	!LO:HP:b:t=cresc	!	!	!	!	!	!	!	!	!	!	!	!	!
(4F#\	.	<	(4F#\	.	<	8aL 8A\	.	<	8c#/L	<	<	4aa\	<	<	.	.	.	.	.	.	4aa\)	[	[	4aaa\	[	[
.	.	.	.	.	.	8a 8A\	.	.	8c#/	.	.	.	.	.	.	.	.	.	.	.	.	.	.	.	.	.
8E\)	.	.	8E\)	.	.	8aJ 8A\	.	.	8c#/J	.	.	(8a/	.	.	.	.	.	.	.	.	(8a\	.	.	(8aa\	.	.
=34	=34	=34	=34	=34	=34	=34	=34	=34	=34	=34	=34	=34	=34	=34	=34	=34	=34	=34	=34	=34	=34	=34	=34	=34	=34	=34
(4D/	.	.	(4D/	.	.	8dL 8A\	.	.	8f#/L	.	.	4ff#\	.	.	[4.d/	.	.	[4.f#X\	.	.	4ff#\	.	.	4fff#\	.	.
.	.	.	.	.	.	8d 8A\	.	.	8f#/	.	.	.	.	.	.	.	.	.	.	.	.	.	.	.	.	.
8C#/)	.	.	8C#/)	.	.	8dJ 8A\	.	.	8f#/J	.	.	8ee\)	>	.	.	.	.	.	.	.	8ee\	.	.	8eee\	.	.
*	*	*	*	*	*	*	*	*	*Xtremolo	*	*	*	*	*	*	*	*	*	*	*	*	*	*	*	*	*
!	!	!LO:HP:ed=brack	!	!	!	!	!	!	!	!	!	!	!	!	!	!	!	!	!	!	!	!	!	!	!	!
4.BB/	.	>	4.BB/	>]	>	8dL 8A\	>	>	8f#/L	>	>	8dd/L	.	>	4d/])	.	.	4f#\])	.	.	4dd\)	.	.	4ddd\)	.	.
.	.	.	.	.	.	8d 8A\	.	.	8f#/	.	.	8f#/	.	.	.	.	.	.	.	.	.	.	.	.	.	.
.	.	]]	.	.	]]	8dJ 8A\	]	]]	8d/J	]]	]]	8f#/J	]]	]]	8r	.	.	8r	.	.	8r	.	.	8r	.	.
*	*	*	*	*	*	*Xtremolo	*	*	*	*	*	*	*	*	*	*	*	*	*	*	*	*	*	*	*	*
!	!	!	!	!	!	!LO:LB:g=original	!	!	!	!	!	!	!	!	!	!	!	!	!	!	!	!	!	!	!	!
=35	=35	=35	=35	=35	=35	=35	=35	=35	=35	=35	=35	=35	=35	=35	=35	=35	=35	=35	=35	=35	=35	=35	=35	=35	=35	=35
!LO:SIC:s=(4.BB/	!	!	!LO:SIC:s=(4.BB/	!	!	!	!	!	!	!	!	!	!	!	!	!	!	!LO:TX:b:t=4:mod=	!	!	!LO:TX:a:t=1.:mod=	!	!	!LO:TX:a:t=1.:mod=	!	!
4.BB/	.	.	4.BB/	.	.	[4.A/	.	.	(4.d/	.	.	(4.fn/	.	.	2.r	.	.	2.r	.	.	2.r	.	.	2.r	.	.
!LO:SIC:s=4E\)	!	!	!LO:SIC:s=4E\)	!	!	!	!	!	!	!	!	!	!	!	!	!	!	!	!	!	!	!	!	!	!	!
4E\	.	.	4E\	.	.	4A/]	.	.	4c#/)	.	.	4e/)	.	.	.	.	.	.	.	.	.	.	.	.	.	.
8r	.	.	8r	.	.	8r	.	.	8r	.	.	8r	.	.	.	.	.	.	.	.	.	.	.	.	.	.
!LO:LB:g=original	!	!	!LO:LB:g=original	!	!	!	!	!	!	!	!	!	!	!	!	!	!	!	!	!	!LO:LB:g=original	!	!	!LO:LB:g=original	!	!
=36	=36	=36	=36	=36	=36	=36	=36	=36	=36	=36	=36	=36	=36	=36	=36	=36	=36	=36	=36	=36	=36	=36	=36	=36	=36	=36
!LO:TX:a:t=1.:mod=	!	!	!LO:TX:a:t=1.:mod=	!	!	!LO:TX:a:t=1:mod=	!	!	!LO:TX:a:t=1.:mod=	!	!	!LO:TX:a:t=1:mod=	!	!	!	!	!	!	!	!	!	!	!	!	!	!
2.r	.	.	2.r	.	.	2.r	.	.	2.r	.	.	2.r	.	.	2.r	.	.	2.r	.	.	4r	.	.	4r	.	.
.	.	.	.	.	.	.	.	.	.	.	.	.	.	.	.	.	.	.	.	.	(8ee\	p	p	(8eee\	p	p
.	.	.	.	.	.	.	.	.	.	.	.	.	.	.	.	.	.	.	.	.	16cc#\LL	.	.	16ccc#\LL	.	.
.	.	.	.	.	.	.	.	.	.	.	.	.	.	.	.	.	.	.	.	.	16b\J	.	.	16bb\J	.	.
.	.	.	.	.	.	.	.	.	.	.	.	.	.	.	.	.	.	.	.	.	8a\)	.	.	8aa\)	.	.
.	.	.	.	.	.	.	.	.	.	.	.	.	.	.	.	.	.	.	.	.	(16f#\L	.	.	(16ff#\L	.	.
.	.	.	.	.	.	.	.	.	.	.	.	.	.	.	.	.	.	.	.	.	16g#\JJ	.	.	16gg#\JJ	.	.
!	!	!	!	!	!	!	!	!	!LO:LB:g=original	!	!	!LO:LB:g=original	!	!	!	!	!	!	!	!	!	!	!	!	!	!
=37	=37	=37	=37	=37	=37	=37	=37	=37	=37	=37	=37	=37	=37	=37	=37	=37	=37	=37	=37	=37	=37	=37	=37	=37	=37	=37
4r	.	.	4r	.	.	4r	.	.	4r	.	.	4r	.	.	2.r	.	.	2.r	.	.	4e/)	.	.	4ee\)	.	.
8r	p	.	8r	.	.	8r	p	.	8r	.	.	8ee\	p	p	.	.	.	.	.	.	8r	.	.	8r	.	.
4E\	.	p	4E\	p	p	4d 4B\	.	p	4g#/	p	p	(16dd\LL	.	.	.	.	.	.	.	.	4r	.	.	4r	.	.
.	.	.	.	.	.	.	.	.	.	.	.	16cc#\J	.	.	.	.	.	.	.	.	.	.	.	.	.	.
.	.	.	.	.	.	.	.	.	.	.	.	8b\)	.	.	.	.	.	.	.	.	.	.	.	.	.	.
8r	.	.	8r	.	.	8r	.	.	8r	.	.	8ee\J	.	.	.	.	.	.	.	.	8r	.	.	8r	.	.
=38	=38	=38	=38	=38	=38	=38	=38	=38	=38	=38	=38	=38	=38	=38	=38	=38	=38	=38	=38	=38	=38	=38	=38	=38	=38	=38
!	!	!	!	!	!	!	!	!	!	!	!	!	!	!	!	!	!	!	!	!	!LO:TX:t=P:problem=brak t. 38	!	!	!LO:TX:a:t=1.:mod=	!	!
!	!	!	!	!	!	!	!	!	!	!	!	!	!	!	!	!	!	!	!	!	!LO:SIC:s=2.r	!	!	!	!	!
2.AA/	.	.	2.AA/	.	.	2.E/	.	.	2.c#/	.	.	(16a/LL	.	.	2.r	.	.	2.r	.	.	2.ryy	.	.	2.r	.	.
.	.	.	.	.	.	.	.	.	.	.	.	16b/J	.	.	.	.	.	.	.	.	.	.	.	.	.	.
.	.	.	.	.	.	.	.	.	.	.	.	8cc#/J)	.	.	.	.	.	.	.	.	.	.	.	.	.	.
.	.	.	.	.	.	.	.	.	.	.	.	(<16a/LL	.	.	.	.	.	.	.	.	.	.	.	.	.	.
.	.	.	.	.	.	.	.	.	.	.	.	16f#/JJ	.	.	.	.	.	.	.	.	.	.	.	.	.	.
.	.	.	.	.	.	.	.	.	.	.	.	8e\L)	.	.	.	.	.	.	.	.	.	.	.	.	.	.
.	.	.	.	.	.	.	.	.	.	.	.	(16a\L	.	.	.	.	.	.	.	.	.	.	.	.	.	.
.	.	.	.	.	.	.	.	.	.	.	.	16cc#\J	.	.	.	.	.	.	.	.	.	.	.	.	.	.
.	.	.	.	.	.	.	.	.	.	.	.	8ee\J)	.	.	.	.	.	.	.	.	.	.	.	.	.	.
!	!	!	!	!	!	!	!	!	!	!	!	!	!	!	!LO:LB:g=original	!	!	!LO:LB:g=original	!	!	!	!	!	!	!	!
=39	=39	=39	=39	=39	=39	=39	=39	=39	=39	=39	=39	=39	=39	=39	=39	=39	=39	=39	=39	=39	=39	=39	=39	=39	=39	=39
*	*	*	*	*	*	*	*	*	*	*	*	*rep	*	*	*	*	*	*	*	*	*	*	*	*	*	*
[2.AA/	.	.	[2.AA/	.	.	[2.E/	.	.	2.c#/	.	.	(16a/LL	.	.	4r	.	.	4r	.	.	4r	.	.	4r	.	.
.	.	.	.	.	.	.	.	.	.	.	.	16b/J	.	.	.	.	.	.	.	.	.	.	.	.	.	.
.	.	.	.	.	.	.	.	.	.	.	.	8cc#/J)	.	.	.	.	.	.	.	.	.	.	.	.	.	.
.	.	.	.	.	.	.	.	.	.	.	.	(16a/LL	.	.	8r	.	.	8r	pp	.	8r	.	.	8r	.	.
.	.	.	.	.	.	.	.	.	.	.	.	16f#/JJ	.	.	.	.	.	.	.	.	.	.	.	.	.	.
.	.	.	.	.	.	.	.	.	.	.	.	8e\L)	.	.	[4.E/	.	pp	[4.c#X/	.	pp	8r	.	.	8r	.	.
.	.	.	.	.	.	.	.	.	.	.	.	(16a\L	.	.	.	.	.	.	.	.	(16a\LL	p	p	(16aa\LL	p	p
.	.	.	.	.	.	.	.	.	.	.	.	16cc#\J	.	.	.	.	.	.	.	.	16cc#\J	.	.	16ccc#\J	.	.
.	.	.	.	.	.	.	.	.	.	.	.	8ee\J)	.	.	.	.	.	.	.	.	8ee\J	.	.	8eee\J	.	.
*	*	*	*	*	*	*	*	*	*	*	*	*Xrep	*	*	*	*	*	*	*	*	*	*	*	*	*	*
!	!	!	!	!	!	!	!	!	!	!	!	!LO:LB:g=original	!	!	!	!	!	!	!	!	!	!	!	!LO:LB:g=original	!	!
=40	=40	=40	=40	=40	=40	=40	=40	=40	=40	=40	=40	=40	=40	=40	=40	=40	=40	=40	=40	=40	=40	=40	=40	=40	=40	=40
4AA/]	.	.	4AA/]	.	.	4E/]	.	.	4e 4c#/	.	.	4aa\	.	.	4E/]	.	.	4c#/]	.	.	4aa\)	.	.	4aaa\)	.	.
8r	.	.	8r	.	.	8r	.	.	8r	.	.	8r	.	.	8r	.	.	8r	.	.	8r	.	.	8r	.	.
4AA/	.	.	4AA/	.	.	4E/	.	.	4e 4c#/	.	.	4a/	.	.	4E/	.	.	4c#X/	.	.	4a\	.	.	4aa\	.	.
8r	.	.	8r	.	.	8r	.	.	8r	.	.	8r	.	.	8r	.	.	8r	.	.	8r	.	.	8r	.	.
!	!	!	!LO:LB:g=original	!	!	!	!	!	!	!	!	!	!	!	!	!	!	!	!	!	!	!	!	!	!	!
=41	=41	=41	=41	=41	=41	=41	=41	=41	=41	=41	=41	=41	=41	=41	=41	=41	=41	=41	=41	=41	=41	=41	=41	=41	=41	=41
[4.AA/	.	.	[4.AA/	.	.	[4.E/	.	.	[4.c#/	.	.	[4.a/	.	.	[4.E/	.	.	[4.c#X/	.	.	[4.a\	.	.	[4.aa\	.	.
4AA/]	.	.	4AA/]	.	.	4E/]	.	.	4c#/]	.	.	4a/]	.	.	4E/]	.	.	4c#/]	.	.	4a\]	.	.	4aa\]	.	.
8r	.	.	8r	.	.	8r	.	.	8r	.	.	8r	.	.	8r	.	.	8r	.	.	8r	.	.	8r	.	.
=:|!	=:|!	=:|!	=:|!	=:|!	=:|!	=:|!	=:|!	=:|!	=:|!	=:|!	=:|!	=:|!	=:|!	=:|!	=:|!	=:|!	=:|!	=:|!	=:|!	=:|!	=:|!	=:|!	=:|!	=:|!	=:|!	=:|!
*-	*-	*-	*-	*-	*-	*-	*-	*-	*-	*-	*-	*-	*-	*-	*-	*-	*-	*-	*-	*-	*-	*-	*-	*-	*-	*-
!!!system-decoration: [(s1,s2)][(s3,s4)][(s5,s6,s7,s8,s9)]
!!!RDF**kern: > = above
!!!RDF**kern: < = below
!!!ENC: Marcin Jachim
!!!END: 2021-05-31
!!!ENC: Kamil Watkowski
!!!END: 2021-06-09
!!!ENC-modern: Katarzyna Serwa
!!!END-modern: 2022-09-02
!!!filter-modern: sic -sq | shed -e "s/LO:DY:(a|b|rj)/LO:dy:$1/L" | autostem -r | tie -s | shed -k -e "s/[<>]//g" | shed -e "s/TX(.*):t=P:/tx$1:t=P:/LG" | shed -e "s/^(X?)rep$/$1REP/I" | modori -m
